app/dist/common/images/caida-securities-co-ltd.svg

<svg height="18" viewBox="0 0 18 18" width="18" xmlns="http://www.w3.org/2000/svg"><path d="m0 0h18v18h-18z" fill="#f0f3fa"/><g fill="#b71d37"><path d="m7.75 4.16a5 5 0 0 0 0 9.68v-1.04a4 4 0 0 1 0-7.6zm1.88 8.8a4 4 0 0 0 0-7.91v1.45h-1.26v-2.47l.63-.03a5 5 0 1 1 -.63 9.96v-2.46h1.26v1.45z"/><path d="m7.43 7c-.24 0-.43.18-.43.4v1.6h1.33v-.53c0-.08.07-.14.15-.14h2.52v-1.33zm3.14 4c.24 0 .43-.18.43-.4v-1.6h-1.33v.53c0 .08-.07.14-.15.14h-2.52v1.33z"/></g></svg>

<!-- by TradingView --><svg width="18" height="18" viewBox="0 0 18 18" xmlns="http://www.w3.org/2000/svg"><path fill="#F0F3FA" d="M0 0h18v18H0z"/><path d="M7.75 4.16a5 5 0 0 0 0 9.68V12.8a4 4 0 0 1 0-7.6V4.16Zm1.88 8.8a4 4 0 0 0 0-7.91V6.5H8.37V4.03L9 4a5 5 0 1 1-.63 9.96V11.5h1.26v1.45Z" fill="#B71D37"/><path d="M7.43 7c-.24 0-.43.18-.43.4V9h1.33v-.53c0-.08.07-.14.15-.14H11V7H7.43ZM10.57 11c.24 0 .43-.18.43-.4V9H9.67v.53c0 .08-.07.14-.15.14H7V11h3.57Z" fill="#B71D37"/></svg>
